X:62
T:Polska efter Blinda Janne
T:(SvL Småland 62)
R:Polska
S:Blinda Janne
B:Svenska Låtar Småland
O:Gränna, Småland
M:3/4
L:1/8
K:G
gb gb gb|aa/f/ gg/e/ d2|ee ff gg|BB AA G2:|
|:BG/B/ d/B/G/B/ dc/B/|AF/A/ c/A/F/A/ cB/A/|BG/B/ d/B/G/B/ dc/B/|
AF/A/ c/A/F/A/ cB|dd ee ff|BB AA G2:|

